X: 34847
T: Roaring Mary
R: reel
M: 4/4
K: Dmajor
D~F3 A~F3|Adef g2 fe|d3B ABde|fede fee2|
D~F3 A~F3|Adef g2 fe|dcdB ABdf|afeg fd d2:|
abag fgfe|dcdA BAFA|d~g3 b~g3|a~f3 ge ~e2|
D~F3 A~F3|Adef g2 fe|dcdB ABdf|afeg fd d2:|

